img/logos/mdn.svg

<svg width="256" height="226" viewBox="0 0 256 226" xmlns="http://www.w3.org/2000/svg" preserveAspectRatio="xMinYMin meet"><defs><linearGradient x1="50%" y1="100.019%" x2="50%" y2="0%" id="a"><stop stop-color="#2075BC" offset="0%"/><stop stop-color="#29AAE1" offset="100%"/></linearGradient><linearGradient x1="50.024%" y1="100.019%" x2="50.024%" y2="0%" id="b"><stop stop-color="#0A6AA8" offset="0%"/><stop stop-color="#1699C8" offset="100%"/></linearGradient><linearGradient x1="49.981%" y1="100.019%" x2="49.981%" y2="0%" id="c"><stop stop-color="#2075BC" offset="0%"/><stop stop-color="#29AAE1" offset="100%"/></linearGradient><linearGradient x1="50.019%" y1="100.019%" x2="50.019%" y2="0%" id="d"><stop stop-color="#0A6AA8" offset="0%"/><stop stop-color="#1699C8" offset="100%"/></linearGradient><linearGradient x1="49.98%" y1="100.019%" x2="49.98%" y2="0%" id="e"><stop stop-color="#2075BC" offset="0%"/><stop stop-color="#29AAE1" offset="100%"/></linearGradient></defs><path d="M192.1.1V0l-.2.1-.1-.1v.1L128 25.6 64.2.1V0l-.1.1-.2-.1v.1L0 25.7v200.1l64.1-24.5 63.7 24.4v.1h.4v-.1l63.7-24.4 64.1 24.5V25.7L192.1.1z" fill="url(#a)"/><path d="M0 25.7v200.1l64.2-24.5V0L0 25.7z" fill="url(#b)"/><path d="M128.2 25.7v200.1l-64.3-24.5V0l64.3 25.7z" fill="url(#c)"/><path d="M127.8 25.7v200.1l64.3-24.5V0l-64.3 25.7z" fill="url(#d)"/><path d="M256 25.7v200.1l-64.2-24.5V0L256 25.7z" fill="url(#e)"/><path d="M219.8 117c-2.3-6.7-1.6-18.2-2.8-19.9-7.5-10.3-34.8-12.1-47.1-25.6 2.2-6.7-2.2-12.2-6.7-16.4-6.7-4.9-16.1-2.7-23.3-.8-8.2-1.7-15.8-4.7-23.7-7-17.8-1.9-35.4 10.6-35.4 10.6-12.7 8-32.6 24.7-42.1 34.5 2.3.3 4.8-1.4 7.4-1.7L64.4 86c-7.6 6.3-23.6 17.3-28.2 26 5.7-1.9 17.6-8.5 23.6-9-5.2 4.6-16 13.3-19.5 18.8.4.2.1.7.2 1 4.5-2.5 15.3-8.9 20.2-9.3-5.1 5.3-14.4 15.4-16.5 22.2 4.4-2.9 15.5-8.7 20.3-10.5-1.1 2.7-3.6 4.7-5.2 7.4-2.2 3.7-7.4 7.9-7.6 12.4 3.9-3.6 8.7-6.7 13.5-9.3-2.2 4.5-6.1 8.2-7.2 13.5 3.2-3.1 9.1-4.6 13.2-6l-.5.5c-.3.3-4.9 3.5-8 7.1 2.8-.2.7-.5 4.2.3l1.9.1c-.9.5-2 1-3.1 1.6-1.7.9-3.5 1.9-5.4 2.9 7.6 9.7 17 17.4 27.7 22.7 14 6.9 29.4 9.1 44.7 7.3l-.6-2.7c-.3-1.1-.6-2.2-1-3.2 0-.1 0-.1-.1-.2 5.2-9.7 2.5-26.4 15.9-33.1 9-4.6 10.1-7.1 20.4-5.2 5.6 1.1 17.9 5.3 23.7 4 5.3-3 8-4.3 12.6-7.8 5.8 1 7.6.5 9.8-2.6-1.9 2.7 3.7-10.4 6.1-15.4l.3-2.5z" fill="#FFF"/><path d="M62.5 150.9c2.2-.1 1.3-.4 2.7 0v-2.7c-.9.7-1.8 1.7-2.7 2.7zM36.2 112c5.7-1.9 17.6-8.5 23.6-9-5.2 4.6-16 13.3-19.5 18.8.4.2.1.7.2 1 4.5-2.5 15.3-8.9 20.2-9.3-5.1 5.3-14.4 15.4-16.5 22.2 4.4-2.9 15.5-8.7 20.3-10.5-1.1 2.7-3.6 4.7-5.2 7.4-2.2 3.7-7.4 7.9-7.6 12.4 3.9-3.6 8.7-6.7 13.5-9.3-2.2 4.5-6.1 8.2-7.2 13.5 1.8-1.8 4.6-3 7.4-4v-76C55.4 77 45 86.1 38.9 92.4c2.3.3 4.8-1.4 7.4-1.7L64.4 86c-7.6 6.2-23.5 17.2-28.2 26zm29.1 41.1c-1.6.9-3.3 1.8-5.1 2.7 1.6 2 3.3 4 5.1 5.9v-8.6zM191.8 84.3c-8.2-3.1-16.5-6.8-21.8-12.7 2.2-6.7-2.2-12.2-6.7-16.4-6.7-4.9-16.1-2.7-23.3-.8-4-.9-7.9-2-11.7-3.2v135c1.5-.1 2.9-.2 4.4-.4l-.6-2.7c-.3-1.1-.6-2.2-1-3.2 0-.1 0-.1-.1-.2 5.2-9.7 2.5-26.4 15.9-33.1 9-4.6 10.1-7.1 20.4-5.2 5.6 1.1 17.9 5.3 23.7 4 .3-.1.5-.3.8-.4V84.3z" fill="#F2F2F2"/></svg>

<?xml version="1.0" encoding="UTF-8" standalone="no"?>
<svg width="256px" height="226px" viewBox="0 0 256 226" version="1.1" xmlns="http://www.w3.org/2000/svg" xmlns:xlink="http://www.w3.org/1999/xlink" preserveAspectRatio="xMinYMin meet">
    <defs>
        <linearGradient x1="50%" y1="100.019132%" x2="50%" y2="0%" id="linearGradient-1">
            <stop stop-color="#2075BC" offset="0%"></stop>
            <stop stop-color="#29AAE1" offset="100%"></stop>
        </linearGradient>
        <linearGradient x1="50.0242991%" y1="100.019132%" x2="50.0242991%" y2="0%" id="linearGradient-2">
            <stop stop-color="#0A6AA8" offset="0%"></stop>
            <stop stop-color="#1699C8" offset="100%"></stop>
        </linearGradient>
        <linearGradient x1="49.9807154%" y1="100.019132%" x2="49.9807154%" y2="0%" id="linearGradient-3">
            <stop stop-color="#2075BC" offset="0%"></stop>
            <stop stop-color="#29AAE1" offset="100%"></stop>
        </linearGradient>
        <linearGradient x1="50.0192846%" y1="100.019132%" x2="50.0192846%" y2="0%" id="linearGradient-4">
            <stop stop-color="#0A6AA8" offset="0%"></stop>
            <stop stop-color="#1699C8" offset="100%"></stop>
        </linearGradient>
        <linearGradient x1="49.9802181%" y1="100.019132%" x2="49.9802181%" y2="0%" id="linearGradient-5">
            <stop stop-color="#2075BC" offset="0%"></stop>
            <stop stop-color="#29AAE1" offset="100%"></stop>
        </linearGradient>
    </defs>
	<g>
		<path d="M192.1,0.1 L192.1,0 L191.9,0.1 L191.8,0 L191.8,0.1 L128,25.6 L64.2,0.1 L64.2,0 L64.1,0.1 L63.9,0 L63.9,0.1 L0,25.7 L0,225.8 L64.1,201.3 L127.8,225.7 L127.8,225.8 L128,225.8 L128.2,225.8 L128.2,225.7 L191.9,201.3 L256,225.8 L256,25.7 L192.1,0.1 Z" fill="url(#linearGradient-1)"></path>
		<g>
			<path d="M0,25.7 L0,225.8 L64.2,201.3 L64.2,0 L0,25.7 Z" fill="url(#linearGradient-2)"></path>
			<path d="M128.2,25.7 L128.2,225.8 L63.9,201.3 L63.9,0 L128.2,25.7 Z" fill="url(#linearGradient-3)"></path>
			<path d="M127.8,25.7 L127.8,225.8 L192.1,201.3 L192.1,0 L127.8,25.7 Z" fill="url(#linearGradient-4)"></path>
			<path d="M256,25.7 L256,225.8 L191.8,201.3 L191.8,0 L256,25.7 Z" fill="url(#linearGradient-5)"></path>
		</g>
		<path d="M219.8,117 C217.5,110.3 218.2,98.8 217,97.1 C209.5,86.8 182.2,85 169.9,71.5 C172.1,64.8 167.7,59.3 163.2,55.1 C156.5,50.2 147.1,52.4 139.9,54.3 C131.7,52.6 124.1,49.6 116.2,47.3 C98.4,45.4 80.8,57.9 80.8,57.9 C68.1,65.9 48.2,82.6 38.7,92.4 C41,92.7 43.5,91 46.1,90.7 L64.4,86 C56.8,92.3 40.8,103.3 36.2,112 C41.9,110.1 53.8,103.5 59.8,103 C54.6,107.6 43.8,116.3 40.3,121.8 C40.7,122 40.4,122.5 40.5,122.8 C45,120.3 55.8,113.9 60.7,113.5 C55.6,118.8 46.3,128.9 44.2,135.7 C48.6,132.8 59.7,127 64.5,125.2 C63.4,127.9 60.9,129.9 59.3,132.6 C57.1,136.3 51.9,140.5 51.7,145 C55.6,141.4 60.4,138.3 65.2,135.7 C63,140.2 59.1,143.9 58,149.2 C61.2,146.1 67.1,144.6 71.2,143.2 L70.7,143.7 C70.4,144 65.8,147.2 62.7,150.8 C65.5,150.6 63.4,150.3 66.9,151.1 L68.8,151.2 C67.9,151.7 66.8,152.2 65.7,152.8 L65.7,152.8 C64,153.7 62.2,154.7 60.3,155.7 C67.9,165.4 77.3,173.1 88,178.4 C102,185.3 117.4,187.5 132.7,185.7 C132.5,184.8 132.3,183.9 132.1,183 L132.1,183 L132.1,183 C131.8,181.9 131.5,180.8 131.1,179.8 L131.1,179.8 C131.1,179.7 131.1,179.7 131,179.6 C136.2,169.9 133.5,153.2 146.9,146.5 C155.9,141.9 157,139.4 167.3,141.3 C172.9,142.4 185.2,146.6 191,145.3 C196.3,142.3 199,141 203.6,137.5 C209.4,138.5 211.2,138 213.4,134.9 C211.5,137.6 217.1,124.5 219.5,119.5 L219.8,117 L219.8,117 Z" fill="#FFFFFF"></path>
		<path d="M62.5,150.9 C64.7,150.8 63.8,150.5 65.2,150.9 L65.2,148.2 C64.3,148.9 63.4,149.9 62.5,150.9 Z M36.2,112 C41.9,110.1 53.8,103.5 59.8,103 C54.6,107.6 43.8,116.3 40.3,121.8 C40.7,122 40.4,122.5 40.5,122.8 C45,120.3 55.8,113.9 60.7,113.5 C55.6,118.8 46.3,128.9 44.2,135.7 C48.6,132.8 59.7,127 64.5,125.2 C63.4,127.9 60.9,129.9 59.3,132.6 C57.1,136.3 51.9,140.5 51.7,145 C55.6,141.4 60.4,138.3 65.2,135.7 C63,140.2 59.1,143.9 58,149.2 C59.8,147.4 62.6,146.2 65.4,145.2 L65.4,69.2 C55.4,77 45,86.1 38.9,92.4 C41.2,92.7 43.7,91 46.3,90.7 L64.4,86 C56.8,92.2 40.9,103.2 36.2,112 Z M65.3,153.1 C63.7,154 62,154.9 60.2,155.8 C61.8,157.8 63.5,159.8 65.3,161.7 L65.3,153.1 Z" fill="#F2F2F2"></path>
		<path d="M191.8,84.3 C183.6,81.2 175.3,77.5 170,71.6 C172.2,64.9 167.8,59.4 163.3,55.2 C156.6,50.3 147.2,52.5 140,54.4 C136,53.5 132.1,52.4 128.3,51.2 L128.3,186.2 C129.8,186.1 131.2,186 132.7,185.8 C132.5,184.9 132.3,184 132.1,183.1 L132.1,183.1 C131.8,182 131.5,180.9 131.1,179.9 C131.1,179.8 131.1,179.8 131,179.7 C136.2,170 133.5,153.3 146.9,146.6 C155.9,142 157,139.5 167.3,141.4 C172.9,142.5 185.2,146.7 191,145.4 C191.3,145.3 191.5,145.1 191.8,145 L191.8,84.3 L191.8,84.3 Z" fill="#F2F2F2"></path>
	</g>
</svg>
